X:1
T:Miss Janet Jeffray
M:C
L:1/8
Q:80
C:Trad. arr. Jamie MacInnis
S:Reel
K:HP
|: f | \
{gef}e2{g}Ae{g}c{d}A{g}ec | \
{g}fe{g}ce{g}fB{G}Ba | \
{ef}e2{g}Ae{g}c{d}A{g}ec |
{Gdc}d2{g}Bd{g}c{d}A{e}A:| [ | \
g | \
agae{g}c{d}A{g}ec | \
{ag}a2ce{g}fB{G}Be |
agae{g}c{d}A{g}ce | \
{Gdc}d2{e}Bd{g}c{d}A{e}Agagae{g}c{d}A{g}ec | \
{ag}a2ce{g}fB{G}Be |
{ag}a2eg{afg}f2{g}df | \
{g}ec{g}Bd{g}c{d}A{e}A|]
